X:220
T:Bourree La Bass. (p)1679.PLFD.220
M:4/4
L:1/8
Q:1/2=110
S:Playford, Dancing Master,6th Ed.,1679
O:England
H:1679.
Z:Chris Partington.
K:G
ga|b2agf3g|a2d4ed|c3BA2Bc|d2d4:|
|:AB|c3d edef|g2g4cB|c3d edcB|A2A4cB|
c3d edef|efgfg2Bc|d2cBA2Bc|B2G4:|
